X:28
T:Karjalan Poikia Medley
M:2/4
L:1/16
Q:1/4=120
S:Karjalan Poikia, unnamed ("Karjalan II")
R:polka
P:P:KP,K2
K:G
P:KP
|: "G" [d3B3][dB] [d2B2][d2B2] | ~d2^cd e2d2 |
[B3G3][BG] [B2G2][B2G2] | ~B2^AB c2B2 | "D" A2AA FDFG | !
A2AA FDFG | [1 AFDF d3c | "G" c2B2 B4 :|
[2 AFDF B3A | "G" ~A2G2 G4 || !
|: "G" DEDC B,2D2 | G3G GFGA | B3B A2B2 | "C" [cE] z3 "G" [B4D4] | !
"D" A2AA FDFG | A2AA FDFG | AFDF B3A | "G" ~A2G2 G4 :|!
P:K2
|: "G" G,2B,D B,G,B,D | "C" C2EG ECEG | "D" D2FA FDFA | "G" BAGF GFED | !
G,2B,D B,G,B,D | "C" C2EG ECEG | "D" D2FA FDFA |
[1 "G" G2G2 G4 :|[2 "G" BAG2 G3B || !
|: "G" d2d2 "C" e3d | "D" d2c2 cBAB | c2c2 d3c | "G" c2B2 BAGB | !
d2d2 "C" e3d | "D" d2c2 cBAB | cBAd c2F2 |[1 ~A2G2 G3B :|[2 ~A2G2 G4 ||
